app/img/about/san-francisco-giants.svg

<?xml version="1.0" encoding="UTF-8"?>
<svg width="237px" height="330px" viewBox="0 0 237 330" version="1.1" xmlns="http://www.w3.org/2000/svg" xmlns:xlink="http://www.w3.org/1999/xlink">
    <!-- Generator: Sketch 40.3 (33839) - http://www.bohemiancoding.com/sketch -->
    <title>san-francisco-giants</title>
    <desc>Created with Sketch.</desc>
    <defs></defs>
    <g id="Page-1" stroke="none" stroke-width="1" fill="none" fill-rule="evenodd">
        <g id="san-francisco-giants" fill="#FD5A1E">
            <g id="Page-1">
                <g id="san-francisco-giants">
                    <g id="MLB">
                        <g id="san-francisco-giants-2">
                            <g id="sf">
                                <g id="Page-1">
                                    <g id="MLB_Logo_San_Francisco">
                                        <g id="Imported-Layers">
                                            <path d="M99.445649,146.654922 L99.445649,179.754922 C99.445649,179.754922 141.542703,182.480049 154.442946,174.662985 C152.11923,181.988369 152.867,205.87018 154.442946,209.864675 C138.141554,201.518976 99.445649,204.811301 99.445649,204.811301 L99.445649,238.166782 L161.81773,238.166782 L175.105527,222.717437 L175.105527,165.664927 L159.711108,147.774859 C150.541676,146.78668 117.839189,146.654922 99.445649,146.654922 L99.445649,146.654922 L99.445649,146.654922 L99.445649,146.654922 L99.445649,146.654922 Z M2.9462973,28.2742184 C15.883527,22.1121553 29.6489324,9.079432 34.5649189,0.3223932 C47.0534865,6.18559223 161.81773,5.32113592 175.091054,0.3223932 C183.102649,11.979699 191.685122,18.5097184 203.795784,22.4865388 C202.673324,33.7019757 203.036757,37.6852233 206.698419,46.672034 L175.091054,46.672034 L161.81773,31.8782621 L49.2775,31.8782621 L34.5327568,44.7936893 L34.5327568,104.431534 L49.2260405,118.666141 L67.827027,119.426155 C67.827027,97.2748641 68.0569865,93.0795194 51.7555946,88.7283155 C57.1877838,77.8663738 58.2780811,76.5986117 59.704473,63.0661748 C73.6708919,67.7355243 217.886027,65.1823252 224.170514,61.6104175 C223.144541,75.6955922 231.123973,102.527481 236.487014,112.516932 L204.884473,112.516932 C203.284405,101.550549 196.340595,93.0795194 185.32023,91.0196068 L99.445649,91.0196068 L99.445649,119.418121 C99.445649,119.418121 166.272189,121.261117 175.091054,118.248374 C179.482797,129.638951 195.285676,146.356058 206.698419,150.962743 C202.850216,174.2645 203.572257,214.000568 206.698419,238.1475 C194.251662,244.291888 181.568514,256.96951 175.091054,269.727471 C159.375014,265.403583 99.445649,267.550262 99.445649,267.550262 L99.445649,285.413015 C102.541257,297.605383 109.083041,300.550641 120.593878,301.545248 C120.593878,301.545248 111.356905,318.892218 110.983824,329.031102 L56.9626486,329.031102 C56.7519865,319.134845 47.359027,301.545248 47.359027,301.545248 C57.7313243,301.059995 66.2510811,294.917214 67.827027,285.413015 L67.827027,267.550262 C67.827027,267.550262 48.8786892,266.803102 34.5649189,269.727471 C30.2294595,260.019209 14.4314054,242.591898 2.9462973,238.1475 C5.58681081,231.164364 4.35339189,187.565558 0.49071622,178.360223 L34.5649189,178.360223 L34.5327568,222.717437 L47.8189459,238.166782 L67.827027,238.166782 L67.827027,146.66135 C67.827027,146.66135 50.3115135,145.796893 34.5649189,147.003597 C30.0284459,138.179073 16.5122973,124.03766 2.9462973,117.334107 C7.18044595,101.258112 7.55513514,43.4745097 2.9462973,28.2742184 L2.9462973,28.2742184 L2.9462973,28.2742184 L2.9462973,28.2742184 L2.9462973,28.2742184 Z" id="Fill-1"></path>
                                        </g>
                                    </g>
                                </g>
                            </g>
                        </g>
                    </g>
                </g>
            </g>
        </g>
    </g>
</svg>

<svg width="237" height="330" viewBox="0 0 237 330" xmlns="http://www.w3.org/2000/svg"><title>san-francisco-giants</title><path d="M99.446 146.655v33.1s42.097 2.725 54.997-5.092c-2.324 7.325-1.576 31.207 0 35.202-16.301-8.346-54.997-5.054-54.997-5.054v33.356h62.372l13.288-15.45v-57.052l-15.395-17.89c-9.17-.988-41.872-1.12-60.265-1.12zm-96.5-118.38C15.884 22.111 29.65 9.078 34.565.321c12.488 5.864 127.253 5 140.526 0 8.012 11.658 16.594 18.188 28.705 22.165-1.123 11.215-.76 15.198 2.902 24.185h-31.607l-13.273-14.794H49.278L34.533 44.794v59.638l14.693 14.234 18.601.76c0-22.151.23-26.346-16.071-30.698 5.432-10.862 6.522-12.13 7.948-25.662 13.967 4.67 158.182 2.116 164.467-1.456-1.026 14.086 6.953 40.917 12.316 50.907h-31.603c-1.6-10.966-8.543-19.437-19.564-21.497H99.446v28.398s66.826 1.843 75.645-1.17c4.392 11.391 20.195 28.108 31.607 32.715-3.848 23.302-3.126 63.038 0 87.185-12.446 6.144-25.13 18.822-31.607 31.58-15.716-4.324-75.645-2.178-75.645-2.178v17.863c3.095 12.192 9.637 15.138 21.148 16.132 0 0-9.237 17.347-9.61 27.486H56.963c-.211-9.896-9.604-27.486-9.604-27.486 10.372-.485 18.892-6.628 20.468-16.132V267.55s-18.948-.747-33.262 2.177c-4.336-9.708-20.134-27.135-31.619-31.58 2.64-6.983 1.407-50.581-2.455-59.787h34.074l-.032 44.357 13.286 15.45h20.008V146.66s-17.515-.864-33.262.343c-4.537-8.825-18.053-22.966-31.619-29.67 4.234-16.076 4.61-73.86 0-89.06z" fill="#FD5A1E" fill-rule="evenodd"/></svg>
